static/images/mobile/copyright/wikipedia-wordmark-nov.svg

<?xml version="1.0" encoding="UTF-8"?>
<svg width="120px" height="19px" viewBox="0 0 120 19" version="1.1" xmlns="http://www.w3.org/2000/svg" xmlns:xlink="http://www.w3.org/1999/xlink">
    <title>nov-wordmark</title>
    <g id="Page-1" stroke="none" stroke-width="1" fill="none" fill-rule="evenodd">
        <path d="M17.4522293,0.294017238 C17.5934187,0.293968886 17.7359114,0.293971188 17.8781784,0.294014936 L18.9170618,0.294976231 C18.9828535,0.295072936 19.0476333,0.295174246 19.11121,0.29527901 L19.4767046,0.295939828 C19.5347047,0.296053802 19.5911194,0.296168927 19.6457578,0.296284052 L19.9507427,0.296965593 C19.9975112,0.297076113 20.042121,0.297184331 20.0843811,0.297289095 L20.3082166,0.297867023 C20.3403135,0.297953367 20.3696785,0.298033954 20.3961204,0.298107634 L20.5608875,0.298586555 L20.6199467,0.352465115 L20.6199467,0.866383689 C20.6199467,1.00833297 20.540165,1.07878955 20.3826738,1.07878955 C19.6097237,1.11505397 19.4511964,1.1917273 19.1683339,1.59892488 C19.0139511,1.82065588 18.70933,2.29831004 18.3933116,2.83502339 L15.6807333,7.90789706 C15.6807333,7.90789706 15.6542589,7.96321132 15.6050963,8.06572772 L18.9196636,14.8509784 L19.1206721,14.9058931 L24.342748,2.51278815 C24.52407,2.01337535 24.4960946,1.6590202 24.2629662,1.45075884 C24.0288017,1.24871424 23.8640577,1.12748748 23.25896,1.10262045 L22.7688723,1.07878955 C22.708777,1.07878955 22.6517901,1.0570309 22.5968754,1.01558586 C22.5429968,0.977249188 22.5150214,0.926479007 22.5150214,0.865347563 L22.5150214,0.349356737 L22.5896225,0.296514302 L28.4893248,0.296514302 L28.5494202,0.349356737 L28.5494202,0.865347563 C28.5494202,1.00522459 28.4696384,1.07568117 28.3121473,1.07568117 C27.5391972,1.10987334 26.9662194,1.27772577 26.5952862,1.57716623 C26.2233169,1.87867895 25.9332016,2.29312941 25.7249403,2.83398726 C25.7249403,2.83398726 20.9224955,13.8252135 19.2791994,17.4796305 C18.6502708,18.6773923 18.0317035,18.567563 17.4877373,17.4454383 C16.8065207,16.0424639 15.3918817,12.9479566 14.3528554,10.6606458 C13.2422595,12.9534327 11.720863,16.0600605 10.9663593,17.458908 C10.2327819,18.7343793 9.62872039,18.567563 9.14795785,17.492064 C7.47875861,13.5537485 4.05125328,6.63864252 2.43800485,2.76353069 C2.13960052,2.04963976 1.91476114,1.591672 1.70235528,1.41034992 C1.48891329,1.2311001 1.04545129,1.12334298 0.370933165,1.08707856 C0.123299013,1.06013928 0,1.00004396 0,0.902648105 L0,0.362826377 L0.0600953172,0.309983942 L0.287905325,0.30903653 C0.332165734,0.308897768 0.379423962,0.308768286 0.429457678,0.308647648 L0.761187212,0.30802648 C0.821433568,0.307939481 0.884010755,0.307860458 0.948696443,0.307788974 L4.05199156,0.307868143 C4.13392467,0.307919182 4.215076,0.307972106 4.29522323,0.30802648 L5.39433257,0.308896463 C5.45888051,0.308954462 5.5213127,0.309011736 5.58140681,0.30906785 L6.47371624,0.309983942 L6.53381155,0.362826377 L6.53381155,0.876744951 C6.53381155,1.01869423 6.44366858,1.08707856 6.266491,1.08707856 L5.59715351,1.11505397 C5.02313961,1.13888487 4.73613267,1.31088181 4.73613267,1.62897254 C4.73613267,1.77713858 4.79622799,2.01855598 4.92988826,2.34182734 C6.2146847,5.47300059 10.652413,14.8302559 10.652413,14.8302559 L10.8150848,14.8727371 L13.6757043,9.167286 C13.3259141,8.39451736 13.1028514,7.89960805 13.1028514,7.89960805 L11.1362839,4.03485748 C11.1362839,4.03485748 11.0260315,3.81074768 10.9040398,3.56376011 L10.7988983,3.35114721 C10.7299508,3.21192807 10.6663609,3.08401248 10.6265099,3.00494808 L10.5229631,2.79930912 L10.3403751,2.43581531 C9.7531041,1.27008434 9.67184914,1.1875828 8.90757658,1.08604243 C8.66305081,1.05392252 8.53664342,1.02283874 8.53664342,0.901611979 L8.53664342,0.359717998 L8.61020837,0.306875564 L9.50181109,0.306025893 C9.56826451,0.30597887 9.63581596,0.305933656 9.70428268,0.305890182 L11.8500961,0.305038076 C11.9185913,0.305022425 11.9861742,0.305007817 12.0526618,0.304994183 L13.6996601,0.304803312 L13.8343565,0.349356737 L13.8343565,0.889178465 C13.8343565,1.01247748 13.7462857,1.07568117 13.5670359,1.07568117 L13.198175,1.12852361 C12.2656615,1.20105244 12.417972,1.58234686 13.0375754,2.81637312 L14.924,6.676 L17.0111193,2.51382428 C17.3370155,1.80304174 17.2964638,1.58958133 17.1725136,1.42106945 L17.1447795,1.38548289 C17.0618894,1.28705091 16.7842076,1.12748748 16.1801461,1.10365658 L15.9428732,1.07775343 C15.8827779,1.07775343 15.8268271,1.0570309 15.7719124,1.01662198 C15.7180338,0.978285315 15.6910945,0.928551259 15.6910945,0.865347563 L15.6910945,0.351428989 L15.7646595,0.298586555 C16.0109121,0.296859678 16.3083091,0.295708427 16.632962,0.294988894 Z M32.4835912,5.69783996 L32.5105305,5.75171853 L32.5105305,6.34438269 C32.5105305,6.42520053 32.4566519,6.47907909 32.3488948,6.47907909 L31.7831699,6.53399377 C30.9480522,6.61377549 30.6517201,6.83032586 30.6517201,7.37014758 L30.6517201,16.3409279 C30.6517201,16.933592 30.9211129,17.2838027 31.7831699,17.3646205 L32.3488948,17.4195352 C32.4297126,17.4195352 32.5105305,17.4723776 32.5105305,17.5801347 L32.5105305,18.1458596 L32.4835912,18.2007743 C32.4835912,18.2007743 31.7686984,18.1815996 31.0114764,18.1659111 L30.6614327,18.1590004 C30.2552563,18.1514192 29.8668075,18.1458596 29.6010882,18.1458596 C29.3610837,18.1458596 28.984713,18.1514192 28.5830526,18.1590004 L28.2351696,18.1659111 C27.4792303,18.1815996 26.7455245,18.2007743 26.7455245,18.2007743 L26.691646,18.1458596 L26.691646,17.5801347 C26.691646,17.4723776 26.7724638,17.4195352 26.8802209,17.4195352 L27.4190065,17.3646205 C28.3080028,17.2838027 28.5773956,16.8527742 28.5773956,16.3409279 L28.5773956,7.37014758 C28.5773956,6.77955567 28.2530881,6.61481161 27.4190065,6.53606603 L26.8802209,6.48011521 C26.7724638,6.48011521 26.691646,6.45524819 26.691646,6.37235809 L26.691646,5.75171853 L26.7185852,5.69783996 C26.7185852,5.69783996 28.6657503,5.74713528 29.5659257,5.75142183 L29.6819061,5.75171853 C30.4092666,5.75171853 32.4835912,5.69783996 32.4835912,5.69783996 Z M38.6019161,16.3409279 C38.6019161,16.933592 38.9521268,17.2299241 39.7333659,17.3646205 L40.029698,17.4195352 C40.1105158,17.4454383 40.1913337,17.4723776 40.1913337,17.5801347 L40.1913337,18.1458596 L40.1643944,18.2007743 C40.1643944,18.2007743 38.4672197,18.1458596 37.6590413,18.1458596 C36.9047415,18.1458596 34.6957205,18.2007743 34.6957205,18.2007743 L34.641842,18.1458596 L34.641842,17.5801347 C34.641842,17.4723776 34.7226598,17.4195352 34.8304169,17.4195352 L35.3692025,17.3646205 C36.1773809,17.2838027 36.5275916,16.8527742 36.5275916,16.3409279 L36.5275916,7.37014758 C36.5275916,6.77955567 36.2312595,6.61481161 35.3692025,6.53606603 L34.8304169,6.48011521 C34.7226598,6.48011521 34.641842,6.45524819 34.641842,6.37235809 L34.641842,5.75171853 L34.6687813,5.69783996 C34.6687813,5.69783996 36.8778022,5.75171853 37.7129199,5.75171853 C38.4682559,5.75171853 40.1643944,5.69783996 40.1643944,5.69783996 L40.1913337,5.75171853 L40.1913337,6.34438269 C40.1913337,6.42520053 40.1374551,6.45213981 40.029698,6.47907909 L39.7333659,6.53399377 C38.8982482,6.69459333 38.6019161,6.83032586 38.6019161,7.37014758 L38.6019161,11.439015 C39.4909124,11.439015 40.0027587,10.9831195 41.188087,9.71490108 C42.2656582,8.5275005 43.1007759,7.53489164 43.1007759,7.01993694 C43.1007759,6.80338658 42.8583224,6.56300531 42.3195368,6.48011521 C42.2117797,6.45524819 42.1579011,6.42623665 42.1579011,6.34541881 L42.1579011,5.72374312 L42.1848404,5.69887609 C42.1848404,5.69887609 44.3669221,5.75275465 45.1481612,5.75275465 C45.8485825,5.75275465 47.0339108,5.69887609 47.0339108,5.69887609 L47.1147287,5.72374312 L47.1147287,6.34541881 C47.1147287,6.42623665 47.0339108,6.48011521 46.8992144,6.48011521 C45.8485825,6.56093305 45.1212219,6.61481161 44.1514079,7.7193221 L41.8346298,10.3842386 C41.376662,10.8712179 41.2150263,11.1654777 41.2150263,11.3820281 C41.2150263,11.5436637 41.3227834,11.677324 41.4574798,11.8389597 L45.5253111,16.7419087 C45.8485825,17.1180225 46.4951252,17.2806943 47.0339108,17.3874153 L47.1686072,17.4133184 C47.2494251,17.4392216 47.3571822,17.4931001 47.3571822,17.573918 L47.3571822,18.1396429 L47.2763643,18.1665822 C47.2763643,18.1665822 45.8485825,18.1396429 45.0942827,18.1396429 C44.4208007,18.1396429 43.4509866,18.1665822 43.4509866,18.1665822 L43.4240473,18.1396429 L43.4240473,17.8163715 C43.4240473,17.4651247 43.397108,17.1708649 43.0199581,16.7398364 L40.029698,13.0211797 C39.6256088,12.4813579 39.1945803,12.3487338 38.6019161,12.3487338 L38.6019161,16.3409279 L38.6019161,16.3409279 Z M53.1252965,16.3409279 C53.1252965,16.933592 53.3946893,17.2838027 54.2567463,17.3646205 L54.8224712,17.4195352 C54.903289,17.4195352 54.9841068,17.4723776 54.9841068,17.5801347 L54.9841068,18.1458596 L54.9571676,18.2007743 C54.9571676,18.2007743 52.9097823,18.1458596 52.0746646,18.1458596 C51.3203647,18.1458596 49.2191009,18.2007743 49.2191009,18.2007743 L49.1652223,18.1458596 L49.1652223,17.5801347 C49.1652223,17.4723776 49.2460402,17.4195352 49.3537973,17.4195352 L49.8925829,17.3646205 C50.7815791,17.2838027 51.0509719,16.8527742 51.0509719,16.3409279 L51.0509719,7.37014758 C51.0509719,6.77955567 50.7277006,6.61481161 49.8925829,6.53606603 L49.3537973,6.48011521 C49.2460402,6.48011521 49.1652223,6.45524819 49.1652223,6.37235809 L49.1652223,5.75171853 L49.1921616,5.69783996 C49.1921616,5.69783996 51.3203647,5.75171853 52.1554824,5.75171853 C52.882843,5.75171853 54.9571676,5.69783996 54.9571676,5.69783996 L54.9841068,5.75171853 L54.9841068,6.34438269 C54.9841068,6.42520053 54.9302283,6.47907909 54.8224712,6.47907909 L54.2567463,6.53399377 C53.4216286,6.61377549 53.1252965,6.83032586 53.1252965,7.37014758 L53.1252965,16.3409279 Z M58.9462533,7.42299002 C58.9462533,6.58787233 58.5960426,6.56093305 57.3298965,6.48011521 C57.1682608,6.48011521 57.1413215,6.4003335 57.1413215,6.34541881 L57.1413215,5.72581537 L57.1952001,5.69887609 C57.5992893,5.69887609 59.1887068,5.75275465 59.9699459,5.75275465 C60.7242458,5.75275465 61.801817,5.69887609 62.7985703,5.69887609 C66.6218758,5.69887609 67.3222971,7.58358957 67.3222971,8.98650439 C67.3222971,10.6038973 66.541058,13.1351535 62.7177525,13.1351535 C62.0442705,13.1351535 61.5054849,13.0802388 61.0195417,12.8657607 L61.0195417,16.473552 C61.0195417,17.06518 61.3428131,17.2019487 62.2059062,17.335609 L62.7457279,17.4164268 C62.853485,17.44233 62.935339,17.4713415 62.935339,17.5770264 L62.935339,18.1427513 L62.9104719,18.1976659 C62.9104719,18.1976659 60.7542934,18.1427513 59.9191757,18.1427513 C59.1648759,18.1427513 57.1444299,18.1976659 57.1444299,18.1976659 L57.1174906,18.1427513 L57.1174906,17.5770264 C57.1174906,17.4692692 57.1713692,17.44233 57.2791263,17.4164268 L57.8448512,17.335609 C58.6799688,17.2278519 58.9493616,16.9853983 58.9493616,16.473552 L58.9462533,7.42299002 L58.9462533,7.42299002 L58.9462533,7.42299002 Z M61.0205778,12.1114609 C61.5593634,12.3280113 62.2328454,12.3539144 62.771631,12.3539144 C64.389024,12.3539144 65.1671547,11.3820281 65.1671547,9.30977575 C65.1671547,6.99299766 64.1165228,6.48115134 62.6369346,6.48115134 C61.3428131,6.48115134 61.0195417,6.72360486 61.0195417,7.42402614 L61.0205778,12.1114609 L61.0205778,12.1114609 Z M71.9620701,18.1458596 C71.1538917,18.1458596 69.2961175,18.2007743 69.2961175,18.2007743 L69.2681421,18.1458596 L69.2681421,17.5531955 C69.2681421,17.500353 69.2961175,17.4195352 69.4297777,17.4195352 L70.0514534,17.3646205 C70.8876072,17.2838027 71.1300608,16.7450171 71.1300608,16.2072676 L71.1300608,7.31730515 C71.1300608,6.69562946 70.8067894,6.58890846 70.0514534,6.53606603 L69.4297777,6.48011521 C69.2681421,6.45524819 69.2681421,6.4003335 69.2681421,6.37235809 L69.2681421,5.75171853 L69.2961175,5.69783996 C69.2961175,5.69783996 71.3963452,5.75171853 72.2045236,5.75171853 L76.1645978,5.75171853 C76.9727762,5.75171853 78.8865012,5.69783996 78.8865012,5.69783996 L78.942452,5.75171853 C78.967319,6.91010757 79.155894,7.96281175 79.3465412,8.98546826 L78.6751314,9.09322539 C78.3798355,8.09543589 77.8679892,6.66869018 76.1438752,6.66869018 L73.9887328,6.66869018 C73.4768865,6.66869018 73.2074937,6.85726514 73.2074937,7.31419677 L73.2074937,11.2214285 L75.2269036,11.2214285 C75.9822396,11.2214285 76.1697784,10.8981572 76.2785716,10.3593716 L76.4391712,9.79364667 C76.4391712,9.71282883 76.4940859,9.65791414 76.6008069,9.65791414 L77.0567024,9.65791414 C77.1126532,9.65791414 77.1126532,9.68588955 77.1126532,9.73873198 C77.0567024,10.33036 76.9510175,11.0867321 76.9510175,11.7332748 C76.9510175,12.4057207 77.0587746,12.9724817 77.1126532,13.5920852 L77.0567024,13.6469999 L76.6008069,13.6469999 C76.4671466,13.6469999 76.4101597,13.5920852 76.4101597,13.5112673 L76.2754633,12.9196393 C76.1677061,12.3798176 75.9252526,12.0834855 75.221723,12.0834855 L73.2033492,12.0834855 L73.2033492,16.2062315 C73.2033492,16.7160055 73.4965729,17.2278519 73.9845883,17.2278519 L76.5438199,17.2278519 C77.9177232,17.2278519 78.6740953,16.3657949 78.9952944,14.9628801 L79.6667042,15.0436979 L79.1268824,18.140679 L79.0730039,18.1945576 C79.0730039,18.1945576 77.4835864,18.140679 76.675408,18.140679 L71.9620701,18.1458596 L71.9620701,18.1458596 L71.9620701,18.1458596 Z M82.0933116,17.4195352 L82.7129151,17.3646205 C83.5221296,17.2838027 83.7915224,17.0413491 83.7915224,16.2072676 L83.7915224,7.31730515 C83.7915224,6.61481161 83.6008752,6.61481161 82.7129151,6.53606603 L82.1223232,6.48011521 C82.014566,6.48011521 81.931676,6.42623665 81.931676,6.34541881 L81.931676,5.75275465 L81.9575791,5.69887609 C81.9575791,5.69887609 84.3292719,5.75275465 84.8152151,5.75275465 C85.3249891,5.75275465 87.6707787,5.69887609 88.3712,5.69887609 C92.8700598,5.69887609 95.0801169,8.50056122 95.0801169,12.0834855 C95.0801169,16.7988956 91.73861,18.1976659 88.7504222,18.1976659 C86.5952798,18.1976659 85.6534411,18.1427513 84.8183234,18.1427513 C84.0091089,18.1427513 81.9606875,18.1976659 81.9606875,18.1976659 L81.9347843,18.1427513 L81.9347843,17.5770264 C81.931676,17.500353 81.9865906,17.4195352 82.0933116,17.4195352 Z M88.1018072,17.4195352 C91.0640919,17.4195352 92.7363995,16.317097 92.7363995,12.5424894 C92.7363995,9.74184036 92.11576,6.48011521 87.5899609,6.48011521 C86.539329,6.48011521 85.865847,6.6417509 85.865847,7.31730515 L85.865847,16.2072676 C85.865847,16.9594952 86.0533858,17.4195352 88.1018072,17.4195352 Z M101.439859,16.3409279 C101.439859,16.933592 101.709252,17.2838027 102.571309,17.3646205 L103.137034,17.4195352 C103.217852,17.4195352 103.29867,17.4723776 103.29867,17.5801347 L103.29867,18.1458596 L103.27173,18.2007743 C103.27173,18.2007743 101.224345,18.1458596 100.390263,18.1458596 C99.6349275,18.1458596 97.5346998,18.2007743 97.5346998,18.2007743 L97.4797851,18.1458596 L97.4797851,17.5801347 C97.4797851,17.4723776 97.5606029,17.4195352 97.66836,17.4195352 L98.2081818,17.3646205 C99.0961419,17.2838027 99.3665708,16.8527742 99.3665708,16.3409279 L99.3665708,7.37014758 C99.3665708,6.77955567 99.0422633,6.61481161 98.2081818,6.53606603 L97.66836,6.48011521 C97.5606029,6.48011521 97.4797851,6.45524819 97.4797851,6.37235809 L97.4797851,5.75171853 L97.5067244,5.69783996 C97.5067244,5.69783996 99.6349275,5.75171853 100.467973,5.75171853 C101.194297,5.75171853 103.270694,5.69783996 103.270694,5.69783996 L103.295561,5.75171853 L103.295561,6.34438269 C103.295561,6.42520053 103.23961,6.47907909 103.133926,6.47907909 L102.568201,6.53399377 C101.732047,6.61377549 101.436751,6.83032586 101.436751,7.37014758 L101.439859,16.3409279 L101.439859,16.3409279 L101.439859,16.3409279 Z M113.116644,8.02604893 C114.250257,8.02605861 114.944034,7.91723084 115.197975,7.69956563 C115.460965,7.47284981 115.610603,6.94685087 115.646889,6.12156298 C115.719431,6.03088478 115.869069,5.98553891 116.095804,5.9855273 C116.322518,5.98553891 116.481225,6.03088478 116.571925,6.12156298 C116.535638,7.23705825 116.5175,8.03966159 116.517511,8.52937688 C116.5175,8.86493788 116.535638,9.68114614 116.571925,10.9780017 C116.481225,11.0686973 116.322518,11.1140432 116.095804,11.1140354 C115.878138,11.1140432 115.7285,11.0686973 115.646889,10.9780017 C115.610603,10.4792145 115.556189,10.1209903 115.483648,9.90332698 C115.411086,9.68567918 115.188896,9.49523155 114.817078,9.33198216 C114.44524,9.15968023 113.87843,9.07352347 113.116644,9.07351573 L110.586398,9.07351573 L110.586398,15.7936295 C110.586393,16.5917017 110.91741,16.9907369 111.579451,16.990735 L115.37482,16.990735 C117.143259,16.9907369 118.358502,15.7754935 119.02055,13.3450047 C119.356089,13.2724587 119.682572,13.3178026 120,13.4810404 C119.773261,14.9502172 119.42864,16.5010119 118.966136,18.1334265 C117.478811,18.0971506 116.290776,18.0790126 115.402027,18.0790126 L109.4165,18.0790126 C107.911046,18.0971506 106.700339,18.1152886 105.784373,18.1334265 C105.711821,18.0608747 105.675545,17.915771 105.675545,17.6981155 C105.675545,17.4713919 105.711821,17.3126852 105.784373,17.2219954 C106.827304,17.1857195 107.493874,17.0315478 107.784083,16.7594764 C108.074288,16.4874089 108.219391,15.7936314 108.219394,14.6781458 L108.219394,3.50969652 C108.219391,2.3942264 108.074288,1.70498386 107.784083,1.44196891 C107.493874,1.16991496 106.827304,1.01574326 105.784373,0.979449921 C105.711821,0.906915488 105.675545,0.757276822 105.675545,0.530535858 C105.675545,0.303827784 105.711821,0.145121104 105.784373,0.0544138845 L109.389293,0.108827769 L116.490304,0.108827769 C116.970949,0.108845181 117.424398,0.0725692585 117.850652,-1.77635684e-15 C117.923191,-1.77635684e-15 117.959467,0.0272253221 117.959479,0.0816217941 C118.10457,0.716465925 118.313157,2.06321005 118.585239,4.12185224 C118.28595,4.26696947 117.977605,4.31231341 117.660203,4.25788598 C117.306501,3.14241586 116.934673,2.35795047 116.544718,1.90448596 C116.154742,1.45105433 115.479103,1.22432885 114.517801,1.22431337 L111.579451,1.22431337 C111.262031,1.22432885 111.017169,1.34222656 110.844864,1.57800265 C110.672548,1.80474361 110.586393,2.094951 110.586398,2.4486248 L110.586398,8.02604893 L113.116644,8.02604893" id="nov-wordmark" fill="#000000" fill-rule="nonzero"></path>
    </g>
</svg>

<svg xmlns="http://www.w3.org/2000/svg" width="120" height="19"><path fill="#000" fill-rule="nonzero" d="M17.452.294h.426l1.04.001H19.476l.169.001.305.001h.357l.088.001h.165l.059.054v.514c0 .142-.08.213-.237.213-.773.036-.932.113-1.215.52-.154.222-.459.7-.775 1.236l-2.712 5.073-.076.158 3.315 6.785.2.055 5.223-12.393c.181-.5.153-.854-.08-1.062-.234-.202-.399-.324-1.004-.348l-.49-.024a.282.282 0 0 1-.172-.063.178.178 0 0 1-.082-.15V.348l.075-.052h5.9l.06.052v.516c0 .14-.08.21-.238.21-.773.035-1.346.203-1.717.502-.372.302-.662.716-.87 1.257 0 0-4.803 10.991-6.446 14.646-.629 1.197-1.247 1.088-1.791-.035-.681-1.403-2.096-4.497-3.135-6.784-1.11 2.292-2.632 5.4-3.387 6.798-.733 1.275-1.337 1.109-1.818.033-1.67-3.938-5.097-10.853-6.71-14.728-.298-.714-.523-1.172-.736-1.354-.213-.179-.657-.287-1.331-.323C.123 1.06 0 1 0 .903v-.54L.06.31.288.309h.141L.761.308h4.634L5.58.31l.893.001.06.053v.514c0 .142-.09.21-.268.21l-.669.028c-.574.024-.86.196-.86.514 0 .148.06.39.193.713 1.285 3.131 5.722 12.488 5.722 12.488l.163.043 2.86-5.706c-.35-.772-.572-1.267-.572-1.267l-1.967-3.865-.232-.471-.105-.213-.172-.346-.104-.206-.183-.363c-.587-1.166-.668-1.248-1.432-1.35-.245-.032-.371-.063-.371-.184V.36L8.61.307l.892-.001h.202L11.85.305h1.85l.134.044v.54c0 .123-.088.187-.267.187l-.369.053c-.932.072-.78.453-.16 1.687l1.886 3.86 2.087-4.162c.326-.711.285-.924.162-1.093l-.028-.036c-.083-.098-.36-.258-.965-.281l-.237-.026a.283.283 0 0 1-.171-.061.177.177 0 0 1-.08-.152V.351L15.764.3l.868-.004Zm15.032 5.404.027.054v.592c0 .081-.054.135-.162.135l-.566.055c-.835.08-1.131.296-1.131.836v8.97c0 .594.27.944 1.131 1.025l.566.055c.08 0 .162.052.162.16v.566l-.027.055s-.715-.02-1.473-.035l-.35-.007a63.55 63.55 0 0 0-1.06-.013c-.24 0-.616.005-1.018.013l-.348.007c-.756.016-1.49.035-1.49.035l-.053-.055v-.566c0-.108.08-.16.188-.16l.539-.055c.889-.081 1.158-.512 1.158-1.024V7.37c0-.591-.324-.756-1.158-.835l-.539-.056c-.108 0-.188-.025-.188-.108v-.62l.027-.054s1.947.05 2.847.053h.116c.727 0 2.802-.053 2.802-.053Zm6.118 10.643c0 .593.35.889 1.131 1.024l.297.055c.08.025.161.052.161.16v.566l-.027.055s-1.697-.055-2.505-.055c-.754 0-2.963.055-2.963.055l-.054-.055v-.566c0-.108.08-.16.188-.16l.54-.055c.807-.081 1.158-.512 1.158-1.024V7.37c0-.591-.297-.756-1.159-.835l-.539-.056c-.107 0-.188-.025-.188-.108v-.62l.027-.054s2.209.054 3.044.054c.755 0 2.451-.054 2.451-.054l.027.054v.592c0 .081-.054.108-.161.135l-.297.055c-.835.16-1.131.296-1.131.836v4.069c.889 0 1.4-.456 2.586-1.724 1.078-1.187 1.913-2.18 1.913-2.695 0-.217-.243-.457-.781-.54-.108-.025-.162-.054-.162-.135v-.621l.027-.025s2.182.054 2.963.054c.7 0 1.886-.054 1.886-.054l.08.025v.621c0 .081-.08.135-.215.135-1.05.08-1.778.135-2.748 1.24l-2.316 2.664c-.458.487-.62.781-.62.998 0 .162.108.295.242.457l4.068 4.903c.324.376.97.539 1.509.645l.135.026c.08.026.188.08.188.16v.567l-.08.027s-1.428-.027-2.183-.027c-.673 0-1.643.027-1.643.027l-.027-.027v-.324c0-.35-.027-.645-.404-1.076l-2.99-3.719c-.404-.54-.835-.672-1.428-.672v3.992Zm14.523 0c0 .593.27.943 1.132 1.024l.565.055c.081 0 .162.052.162.16v.566l-.027.055s-2.047-.055-2.882-.055c-.755 0-2.856.055-2.856.055l-.054-.055v-.566c0-.108.081-.16.189-.16l.539-.055c.889-.081 1.158-.512 1.158-1.024V7.37c0-.591-.323-.756-1.158-.835l-.54-.056c-.107 0-.188-.025-.188-.108v-.62l.027-.054s2.128.054 2.963.054c.728 0 2.802-.054 2.802-.054l.027.054v.592c0 .081-.054.135-.162.135l-.565.055c-.835.08-1.132.296-1.132.836v8.97Zm5.821-8.918c0-.835-.35-.862-1.616-.943-.162 0-.189-.08-.189-.135v-.62l.054-.026c.404 0 1.994.054 2.775.054.754 0 1.832-.054 2.829-.054 3.823 0 4.523 1.885 4.523 3.288 0 1.617-.78 4.148-4.604 4.148-.674 0-1.213-.055-1.698-.27v3.609c0 .591.323.728 1.186.862l.54.08c.107.026.19.055.19.161v.566l-.026.055s-2.156-.055-2.99-.055c-.755 0-2.776.055-2.776.055l-.027-.055v-.566c0-.108.054-.135.162-.16l.566-.081c.835-.108 1.104-.35 1.104-.862l-.003-9.051Zm2.075 4.688c.538.217 1.212.243 1.75.243 1.618 0 2.396-.972 2.396-3.044 0-2.317-1.05-2.829-2.53-2.829-1.294 0-1.617.243-1.617.943v4.687Zm10.941 6.035c-.808 0-2.666.055-2.666.055l-.028-.055v-.593c0-.053.028-.133.162-.133l.621-.055c.837-.081 1.08-.62 1.08-1.158v-8.89c0-.621-.324-.728-1.08-.78l-.621-.057c-.162-.025-.162-.08-.162-.108v-.62l.028-.054s2.1.054 2.909.054h3.96c.808 0 2.722-.054 2.722-.054l.055.054c.025 1.158.214 2.21.405 3.233l-.672.108c-.295-.998-.807-2.424-2.531-2.424h-2.155c-.512 0-.782.188-.782.645v3.907h2.02c.755 0 .943-.323 1.052-.862l.16-.565c0-.081.055-.136.162-.136h.456c.056 0 .056.028.056.08-.056.592-.162 1.349-.162 1.995 0 .673.108 1.24.162 1.86l-.056.054H76.6c-.134 0-.19-.055-.19-.136l-.136-.591c-.107-.54-.35-.837-1.053-.837h-2.019v4.123c0 .51.294 1.022.782 1.022h2.559c1.374 0 2.13-.862 2.451-2.265l.672.08-.54 3.098-.054.054s-1.59-.054-2.398-.054l-4.713.005Zm10.131-.726.62-.055c.81-.081 1.079-.324 1.079-1.158v-8.89c0-.702-.191-.702-1.08-.78l-.59-.057c-.107 0-.19-.054-.19-.135v-.592l.026-.054s2.371.054 2.857.054c.51 0 2.856-.054 3.556-.054 4.5 0 6.71 2.802 6.71 6.384 0 4.716-3.342 6.115-6.33 6.115-2.156 0-3.098-.055-3.933-.055-.809 0-2.857.055-2.857.055l-.026-.055v-.566a.15.15 0 0 1 .158-.157Zm6.009 0c2.962 0 4.634-1.103 4.634-4.878 0-2.8-.62-6.062-5.146-6.062-1.05 0-1.724.162-1.724.837v8.89c0 .752.187 1.213 2.236 1.213Zm13.338-1.08c0 .594.27.944 1.131 1.025l.566.055c.08 0 .162.052.162.16v.566l-.027.055s-2.048-.055-2.882-.055c-.755 0-2.855.055-2.855.055l-.055-.055v-.566c0-.108.08-.16.188-.16l.54-.055c.888-.081 1.159-.512 1.159-1.024V7.37c0-.591-.325-.756-1.159-.835l-.54-.056c-.107 0-.188-.025-.188-.108v-.62l.027-.054s2.128.054 2.961.054c.726 0 2.803-.054 2.803-.054l.025.054v.592c0 .081-.056.135-.162.135l-.566.055c-.836.08-1.131.296-1.131.836l.003 8.97Zm11.677-8.314c1.133 0 1.827-.109 2.081-.326.263-.227.413-.753.449-1.578.072-.091.222-.136.449-.136s.385.045.476.136a83.973 83.973 0 0 0-.054 2.407c0 .336.018 1.152.054 2.449-.09.09-.25.136-.476.136-.218 0-.368-.045-.45-.136-.035-.499-.09-.857-.162-1.075-.073-.217-.295-.408-.667-.571-.372-.172-.939-.258-1.7-.258h-2.53v6.72c0 .798.33 1.197.992 1.197h3.796c1.768 0 2.984-1.216 3.646-3.646.335-.073.662-.027.979.136a38.872 38.872 0 0 1-1.034 4.652 153.612 153.612 0 0 0-3.564-.054h-5.986c-1.505.018-2.716.036-3.632.054-.072-.072-.108-.217-.108-.435 0-.227.036-.385.108-.476 1.043-.036 1.71-.19 2-.463.29-.272.435-.965.435-2.08V3.508c0-1.115-.145-1.804-.435-2.067-.29-.272-.957-.426-2-.463-.072-.072-.108-.222-.108-.448 0-.227.036-.386.108-.477l3.605.055h7.101c.48 0 .934-.036 1.36-.109.073 0 .11.027.11.082.145.634.353 1.981.625 4.04-.299.145-.607.19-.925.136-.353-1.116-.725-1.9-1.115-2.354-.39-.453-1.066-.68-2.027-.68h-2.939c-.317 0-.562.118-.734.354-.172.227-.259.517-.259.87v5.578h2.53"/></svg>
